flaticon/gastronomy/lime.svg

<svg xmlns="http://www.w3.org/2000/svg" width="32" height="32" viewBox="0 0 24 24">
    <path d="M 22.773438 13.867188 C 22.082031 10.503906 19.265625 8.03125 15.816406 7.691406 C 15.492188 5.355469 14.171875 3.308594 12.140625 2.039062 C 8.910156 0.0195312 4.808594 0.511719 2.253906 3.191406 C 1.578125 2.953125 0.753906 3.273438 0.300781 3.996094 C 0.0625 4.378906 -0.0390625 4.820312 0.015625 5.238281 C 0.0625 5.609375 0.230469 5.933594 0.488281 6.160156 C -0.585938 9.53125 0.808594 13.296875 3.890625 15.222656 C 4.574219 15.652344 5.316406 15.96875 6.09375 16.175781 C 6.28125 16.777344 6.746094 17.230469 7.3125 17.324219 C 8.1875 20.75 11.367188 23.199219 15.003906 23.199219 C 18.636719 23.199219 21.816406 20.75 22.695312 17.324219 C 23.429688 17.203125 24 16.46875 24 15.585938 C 24 14.734375 23.472656 14.023438 22.773438 13.867188 Z M 1.445312 6.140625 L 1.574219 5.800781 L 1.136719 5.523438 C 0.96875 5.417969 0.921875 5.230469 0.90625 5.125 C 0.878906 4.914062 0.9375 4.675781 1.0625 4.472656 C 1.246094 4.183594 1.535156 4.011719 1.789062 4.011719 C 1.878906 4.011719 1.964844 4.03125 2.039062 4.078125 L 2.441406 4.332031 L 2.695312 4.042969 C 4.933594 1.472656 8.707031 0.953125 11.664062 2.800781 C 13.414062 3.898438 14.578125 5.644531 14.902344 7.648438 C 14.800781 7.648438 14.695312 7.660156 14.59375 7.664062 C 14.480469 7.671875 14.363281 7.671875 14.25 7.683594 C 14.128906 7.695312 14.015625 7.710938 13.898438 7.726562 C 13.785156 7.742188 13.671875 7.753906 13.5625 7.773438 C 13.449219 7.796875 13.335938 7.824219 13.222656 7.847656 C 13.113281 7.871094 13.003906 7.894531 12.894531 7.921875 C 12.785156 7.953125 12.675781 7.988281 12.566406 8.023438 C 12.460938 8.054688 12.355469 8.085938 12.25 8.121094 C 12.144531 8.160156 12.039062 8.207031 11.933594 8.25 C 11.832031 8.292969 11.730469 8.328125 11.632812 8.375 C 11.527344 8.421875 11.425781 8.476562 11.324219 8.53125 C 11.226562 8.578125 11.132812 8.621094 11.039062 8.675781 C 10.941406 8.730469 10.84375 8.792969 10.746094 8.855469 C 10.65625 8.910156 10.566406 8.964844 10.476562 9.023438 C 10.382812 9.085938 10.292969 9.15625 10.203125 9.222656 C 10.117188 9.289062 10.03125 9.347656 9.949219 9.414062 C 9.859375 9.484375 9.777344 9.5625 9.691406 9.636719 C 9.613281 9.707031 9.53125 9.773438 9.457031 9.847656 C 9.375 9.925781 9.300781 10.007812 9.222656 10.089844 C 9.148438 10.167969 9.074219 10.242188 9 10.320312 C 8.929688 10.402344 8.859375 10.492188 8.789062 10.578125 C 8.722656 10.664062 8.652344 10.746094 8.589844 10.832031 C 8.523438 10.921875 8.460938 11.015625 8.398438 11.109375 C 8.339844 11.199219 8.277344 11.285156 8.21875 11.375 C 8.160156 11.472656 8.109375 11.574219 8.054688 11.671875 C 8 11.765625 7.945312 11.859375 7.894531 11.957031 C 7.84375 12.058594 7.800781 12.167969 7.75 12.277344 C 7.707031 12.371094 7.660156 12.464844 7.621094 12.566406 C 7.574219 12.683594 7.535156 12.8125 7.492188 12.933594 C 7.460938 13.023438 7.425781 13.113281 7.398438 13.203125 C 7.335938 13.417969 7.277344 13.640625 7.234375 13.867188 C 7.152344 13.882812 7.070312 13.910156 6.996094 13.945312 C 6.96875 13.957031 6.945312 13.96875 6.921875 13.980469 C 6.871094 14.007812 6.824219 14.035156 6.777344 14.0625 C 6.75 14.082031 6.722656 14.101562 6.695312 14.121094 C 6.65625 14.152344 6.613281 14.1875 6.574219 14.222656 C 6.550781 14.246094 6.527344 14.269531 6.503906 14.292969 C 6.464844 14.332031 6.433594 14.375 6.398438 14.417969 C 6.378906 14.441406 6.355469 14.46875 6.335938 14.496094 C 6.304688 14.542969 6.273438 14.597656 6.246094 14.648438 C 6.230469 14.675781 6.214844 14.699219 6.203125 14.726562 C 6.160156 14.804688 6.128906 14.890625 6.097656 14.976562 C 6.097656 14.984375 6.09375 14.992188 6.09375 15 C 6.070312 15.074219 6.050781 15.148438 6.035156 15.226562 C 5.449219 15.046875 4.890625 14.789062 4.367188 14.460938 C 1.542969 12.695312 0.316406 9.195312 1.445312 6.140625 Z M 22.480469 16.441406 L 21.964844 16.441406 L 21.890625 16.796875 C 21.230469 19.988281 18.332031 22.300781 15.003906 22.300781 C 11.671875 22.300781 8.773438 19.988281 8.113281 16.796875 L 8.039062 16.441406 L 7.523438 16.441406 C 7.238281 16.441406 6.992188 16.15625 6.925781 15.785156 L 6.917969 15.746094 C 6.910156 15.695312 6.90625 15.640625 6.90625 15.585938 C 6.90625 15.125 7.1875 14.734375 7.523438 14.734375 L 8 14.734375 L 8.058594 14.355469 C 8.59375 10.988281 11.515625 8.546875 15.003906 8.546875 C 15.121094 8.546875 15.238281 8.558594 15.359375 8.5625 L 15.6875 8.578125 C 18.867188 8.875 21.445312 11.210938 21.949219 14.355469 L 22.007812 14.734375 L 22.484375 14.734375 C 22.816406 14.734375 23.101562 15.125 23.101562 15.585938 C 23.101562 16.050781 22.816406 16.441406 22.480469 16.441406 Z M 22.480469 16.441406"/>
    <path d="M17.027344 10.605469C16.777344 10.605469 16.578125 10.804688 16.578125 11.054688 16.578125 11.300781 16.777344 11.503906 17.027344 11.503906 18.144531 11.503906 19.050781 12.414062 19.050781 13.527344 19.050781 13.777344 19.253906 13.976562 19.5 13.976562 19.75 13.976562 19.949219 13.777344 19.949219 13.527344 19.949219 11.917969 18.640625 10.605469 17.027344 10.605469zM8.875 3.585938C9.078125 3.722656 9.359375 3.671875 9.5 3.464844 9.640625 3.261719 9.585938 2.980469 9.382812 2.839844 7.878906 1.816406 5.851562 2.15625 4.867188 3.601562 4.726562 3.808594 4.78125 4.085938 4.984375 4.226562 5.0625 4.28125 5.152344 4.304688 5.238281 4.304688 5.382812 4.304688 5.523438 4.238281 5.613281 4.109375 6.316406 3.074219 7.78125 2.839844 8.875 3.585938zM8.875 3.585938"/>
</svg>

<svg xmlns="http://www.w3.org/2000/svg" width="32" height="32" viewBox="0 0 24 24">
    <path d="M22.773 13.867c-.691-3.363-3.507-5.836-6.957-6.176a7.907 7.907 0 0 0-3.675-5.652C8.91.02 4.809.512 2.254 3.191c-.676-.238-1.5.082-1.953.805a1.9 1.9 0 0 0-.285 1.242c.046.371.214.696.472.922-1.074 3.371.32 7.137 3.403 9.063.683.43 1.425.746 2.203.953.187.601.652 1.054 1.218 1.148.875 3.426 4.055 5.875 7.692 5.875 3.633 0 6.812-2.449 7.691-5.875.735-.12 1.305-.855 1.305-1.738 0-.852-.527-1.563-1.227-1.719zM1.445 6.141l.13-.34-.438-.278c-.168-.105-.215-.293-.23-.398-.028-.21.03-.45.155-.652.184-.29.473-.461.727-.461.09 0 .176.02.25.066l.402.254.254-.289c2.239-2.57 6.012-3.09 8.97-1.242 1.75 1.097 2.913 2.844 3.237 4.847-.101 0-.207.012-.308.016-.114.008-.23.008-.344.02-.121.011-.234.027-.352.043-.113.015-.226.027-.335.046-.114.024-.227.051-.34.075-.11.023-.22.047-.328.074-.11.031-.22.066-.329.101-.105.032-.21.063-.316.098-.105.04-.21.086-.316.129-.102.043-.204.078-.301.125a4.567 4.567 0 0 0-.309.156c-.097.047-.191.09-.285.145a5.913 5.913 0 0 0-.293.18c-.09.054-.18.109-.27.167-.093.063-.183.133-.273.2-.086.066-.172.125-.254.191-.09.07-.172.149-.258.223-.078.07-.16.136-.234.21-.082.079-.156.16-.234.243-.075.078-.149.152-.223.23-.07.082-.14.172-.21.258-.067.086-.138.168-.2.254-.067.09-.13.184-.192.277-.058.09-.12.176-.18.266-.058.098-.109.2-.163.297-.055.094-.11.187-.16.285-.051.102-.094.211-.145.32-.043.094-.09.188-.129.29-.047.117-.086.245-.129.367-.031.09-.066.18-.094.27a7.167 7.167 0 0 0-.164.663 1.343 1.343 0 0 0-.313.113l-.144.082-.082.06c-.039.03-.082.066-.12.1l-.071.071c-.04.039-.07.082-.106.125-.02.023-.043.05-.062.078a1.95 1.95 0 0 0-.09.152c-.016.028-.031.051-.043.079-.043.078-.074.164-.105.25 0 .007-.004.015-.004.023a2.139 2.139 0 0 0-.059.227 7.005 7.005 0 0 1-1.668-.766C1.543 12.695.317 9.195 1.445 6.14zm21.035 10.3h-.515l-.074.356c-.66 3.191-3.559 5.504-6.887 5.504-3.332 0-6.23-2.313-6.89-5.504l-.075-.356h-.516c-.285 0-.53-.285-.597-.656l-.008-.039a1.065 1.065 0 0 1-.012-.16c0-.461.282-.852.617-.852H8l.059-.379c.535-3.367 3.457-5.808 6.945-5.808.117 0 .234.012.355.015l.329.016c3.18.297 5.757 2.633 6.261 5.777l.059.38h.476c.332 0 .618.39.618.85 0 .466-.286.856-.622.856zm0 0"/>
    <path d="M17.027 10.605a.45.45 0 1 0 0 .898c1.118 0 2.024.911 2.024 2.024a.45.45 0 0 0 .898 0 2.925 2.925 0 0 0-2.922-2.922zm0 0M8.875 3.586a.452.452 0 0 0 .508-.746c-1.504-1.024-3.531-.684-4.516.762a.45.45 0 1 0 .746.507c.703-1.035 2.168-1.27 3.262-.523zm0 0"/>
</svg>
